X: 30540
T: On The Hoof
R: jig
M: 6/8
K: Dmajor
|:BAF EFA|~D3 DFA|BAF EFA|Bdc ~B2A|
BAF EFA|~D3 DEF|~E2D EFA|1 ~B2A Bdc:|2 B3 ~B2A||
|:ABd ede|fdd d2B|ABd ede|fee ~e2f|
gdB GBg|fdA FAd|ede ~f2e|ded d2B:|

